resources/svg/spa.svg

<svg viewBox="0 0 24 24"><path fill="none" stroke="currentColor" stroke-width="2" d="M12 22c1.5 0 4-1 4-5.5S12 6 12 6s-4 6-4 10.5s2.5 5.5 4 5.5zm0 0c-1.5 0-2.953-.22-5-1.5C3 18 2.5 10 2.5 10s4.5.5 6.5 2m3 10c1.5 0 2.953-.22 5-1.5C21 18 21.5 10 21.5 10s-4.5.5-6.5 2"/></svg>

<svg xmlns="http://www.w3.org/2000/svg" viewBox="0 0 24 24" fill="currentColor"><path fill="none" stroke="currentColor" stroke-width="2" d="M12,22 C13.5,22 16,21 16,16.5 C16,12 12,6 12,6 C12,6 8,12 8,16.5 C8,21 10.5,22 12,22 Z M12,22 C10.5,22 9.04678627,21.7792414 7,20.5 C3,18 2.5,10 2.5,10 C2.5,10 7,10.5 9,12 M12,22 C13.5,22 14.9532137,21.7792414 17,20.5 C21,18 21.5,10 21.5,10 C21.5,10 17,10.5 15,12"/></svg>
